img/service__03.svg

<svg width="38" height="38" viewBox="0 0 38 38" fill="none" xmlns="http://www.w3.org/2000/svg">
<path d="M36.9913 13.0399L24.9585 1.00722C24.3089 0.357734 23.4427 0 22.5193 0C21.5959 0 20.7297 0.357586 20.0801 1.00707L1.00722 20.08C0.357734 20.7296 0 21.5957 0 22.5192C0 23.4426 0.357734 24.3089 1.00722 24.9583L2.491 26.4421C2.49115 26.4421 2.49123 26.4423 2.49137 26.4424C2.49152 26.4426 2.49167 26.4427 2.49182 26.4429L12.4639 36.4149H11.0831C10.6459 36.4149 10.2915 36.7693 10.2915 37.2065C10.2915 37.6437 10.6459 37.9981 11.0831 37.9981H15.476C15.4771 37.9981 15.478 37.9982 15.4791 37.9982C15.4801 37.9982 15.4811 37.9981 15.4821 37.9981L26.9157 37.9983C27.3529 37.9983 27.7073 37.6438 27.7073 37.2067C27.7073 36.7695 27.3529 36.4151 26.9157 36.4151L18.4946 36.4149L36.9914 17.9181C38.3362 16.5731 38.3362 14.3847 36.9913 13.0399ZM35.8718 16.7986L16.7987 35.8716C16.449 36.2214 15.9814 36.4142 15.482 36.4149H15.4759C14.9767 36.4141 14.5092 36.2214 14.1596 35.8716L4.17072 25.8827L22.4875 7.56571C22.7967 7.25659 22.7967 6.75532 22.4875 6.4462C22.1783 6.13707 21.6772 6.13707 21.3679 6.44627L3.05113 24.7632L2.12666 23.8388C1.77628 23.4884 1.58331 23.0198 1.58331 22.5192C1.58331 22.0187 1.77628 21.55 2.12674 21.1995L21.1996 2.12666C21.5501 1.77628 22.0188 1.58331 22.5193 1.58331C23.0198 1.58331 23.4885 1.77628 23.839 2.12674L28.1216 6.40931L9.80459 24.7265C9.49547 25.0355 9.49547 25.5368 9.80459 25.8461C9.95919 26.0006 10.1618 26.0779 10.3644 26.0779C10.5669 26.0779 10.7695 26.0005 10.9241 25.846L29.2411 7.5289L35.8718 14.1593C36.5993 14.8869 36.5993 16.071 35.8718 16.7986Z" fill="white"/>
<path d="M19.5028 22.8627C19.1937 22.5536 18.6925 22.5536 18.3832 22.8627L12.1537 29.0921C11.8446 29.4012 11.8446 29.9024 12.1537 30.2117C12.3083 30.3663 12.5109 30.4435 12.7135 30.4435C12.916 30.4435 13.1186 30.3662 13.2732 30.2117L19.5027 23.9823C19.8119 23.673 19.8119 23.1718 19.5028 22.8627Z" fill="white"/>
<path d="M16.947 28.7768L14.392 31.3318C14.0829 31.6409 14.0829 32.1422 14.392 32.4514C14.5466 32.6059 14.7492 32.6832 14.9518 32.6832C15.1544 32.6832 15.3569 32.6059 15.5115 32.4514L18.0665 29.8964C18.3756 29.5873 18.3756 29.086 18.0665 28.7768C17.7574 28.4676 17.2563 28.4676 16.947 28.7768Z" fill="white"/>
<path d="M19.2982 26.4252L18.9624 26.7609C18.6532 27.07 18.6532 27.5712 18.9623 27.8805C19.1168 28.0351 19.3195 28.1124 19.5221 28.1124C19.7246 28.1124 19.9272 28.0351 20.0817 27.8805L20.4176 27.5447C20.7268 27.2356 20.7268 26.7344 20.4177 26.4252C20.1087 26.1161 19.6073 26.116 19.2982 26.4252Z" fill="white"/>
<path d="M30.2141 12.1557C30.0656 12.0072 29.8643 11.9238 29.6543 11.9238C29.4443 11.9238 29.243 12.0072 29.0945 12.1557L25.7358 15.5144C25.5873 15.6629 25.5039 15.8642 25.5039 16.0741C25.5039 16.2841 25.5873 16.4855 25.7358 16.6339L27.9749 18.8729C28.1295 19.0275 28.3322 19.1047 28.5347 19.1047C28.7374 19.1047 28.9399 19.0274 29.0945 18.8729L32.4531 15.5143C32.7622 15.2052 32.7622 14.7039 32.4531 14.3948L30.2141 12.1557ZM28.5346 17.1937L27.415 16.0741L29.6542 13.835L30.7737 14.9546L28.5346 17.1937Z" fill="white"/>
<path d="M23.776 5.95049C23.9787 5.95049 24.1813 5.87316 24.3358 5.71848L24.6717 5.3825C24.9807 5.0733 24.9806 4.57203 24.6715 4.26298C24.3623 3.95393 23.861 3.95401 23.5519 4.2632L23.2161 4.59919C22.9071 4.90839 22.9071 5.40966 23.2163 5.71871C23.3709 5.87331 23.5734 5.95049 23.776 5.95049Z" fill="white"/>
<path d="M7.95831 26.5737L7.62247 26.9095C7.31334 27.2186 7.31334 27.7198 7.62247 28.0291C7.77706 28.1836 7.97968 28.2609 8.18222 28.2609C8.38477 28.2609 8.58739 28.1836 8.74198 28.0291L9.07782 27.6933C9.38694 27.3841 9.38694 26.8828 9.07782 26.5737C8.76863 26.2645 8.2675 26.2645 7.95831 26.5737Z" fill="white"/>
</svg>

<svg width="38" height="38" fill="none" xmlns="http://www.w3.org/2000/svg"><path d="M36.991 13.04L24.96 1.007A3.426 3.426 0 0022.518 0c-.923 0-1.79.358-2.439 1.007L1.007 20.08A3.426 3.426 0 000 22.52c0 .923.358 1.789 1.007 2.438l1.484 1.484 9.973 9.973h-1.38a.792.792 0 100 1.583h15.832a.792.792 0 000-1.583h-8.421L36.99 17.918a3.453 3.453 0 000-4.878zm-1.12 3.759L16.8 35.872c-.35.35-.818.542-1.317.543h-.006c-.5 0-.967-.194-1.316-.543l-9.99-9.99L22.489 7.567a.792.792 0 10-1.12-1.12L3.05 24.763l-.924-.924a1.852 1.852 0 01-.544-1.32c0-.5.193-.969.544-1.32L21.2 2.128c.35-.35.819-.544 1.32-.544.5 0 .968.193 1.319.544l4.283 4.282L9.805 24.727a.792.792 0 001.12 1.119L29.24 7.529l6.63 6.63a1.869 1.869 0 010 2.64z" fill="#fff"/><path d="M19.503 22.863a.792.792 0 00-1.12 0l-6.23 6.23a.792.792 0 001.12 1.119l6.23-6.23a.792.792 0 000-1.12zm-2.556 5.914l-2.555 2.555a.792.792 0 001.12 1.12l2.555-2.556a.792.792 0 00-1.12-1.12zm2.351-2.352l-.336.336a.792.792 0 001.12 1.12l.336-.336a.792.792 0 10-1.12-1.12zm10.916-14.269a.792.792 0 00-1.12 0l-3.358 3.358a.792.792 0 000 1.12l2.239 2.239a.79.79 0 001.12 0l3.358-3.359a.79.79 0 000-1.12l-2.239-2.238zm-1.68 5.038l-1.119-1.12 2.24-2.239 1.119 1.12-2.24 2.239zM23.776 5.95a.789.789 0 00.56-.232l.336-.335a.792.792 0 00-1.12-1.12l-.336.336a.792.792 0 00.56 1.351zM7.958 26.574l-.336.335a.792.792 0 001.12 1.12l.336-.336a.792.792 0 00-1.12-1.12z" fill="#fff"/></svg>
